src/assets/Icons/alertWallet.svg

<svg width="40" height="38" viewBox="0 0 40 38" fill="none" xmlns="http://www.w3.org/2000/svg">
<path d="M2.7516 10.8242H34.0138C34.4413 10.8242 34.8513 10.994 35.1536 11.2961C35.4559 11.5982 35.6258 12.008 35.6258 12.4353V15.8036H2.7516C2.42462 15.8036 2.10085 15.7392 1.79877 15.6142C1.49668 15.4891 1.2222 15.3058 0.990989 15.0748C0.759782 14.8437 0.576377 14.5694 0.451249 14.2675C0.326121 13.9656 0.261719 13.642 0.261719 13.3152C0.261719 12.6552 0.524045 12.0223 0.990989 11.5556C1.45793 11.089 2.09124 10.8268 2.7516 10.8268V10.8242Z" fill="#093F68"/>
<path d="M35.6182 16.0524H2.74657C2.01814 16.0524 1.31953 15.7632 0.804452 15.2484C0.28937 14.7336 0 14.0354 0 13.3074C0 12.5794 0.28937 11.8813 0.804452 11.3665C1.31953 10.8517 2.01814 10.5625 2.74657 10.5625H34.0087C34.5034 10.5632 34.9777 10.7599 35.3275 11.1095C35.6773 11.4591 35.8742 11.9331 35.8749 12.4275V15.7958C35.8749 15.8639 35.8478 15.9291 35.7997 15.9772C35.7515 16.0254 35.6862 16.0524 35.6182 16.0524ZM2.74657 11.0756C2.15429 11.0756 1.58627 11.3107 1.16747 11.7293C0.748661 12.1478 0.513378 12.7155 0.513378 13.3074C0.513378 13.8994 0.748661 14.4671 1.16747 14.8856C1.58627 15.3042 2.15429 15.5393 2.74657 15.5393H35.3615V12.4275C35.3615 12.069 35.219 11.7251 34.9653 11.4715C34.7116 11.218 34.3675 11.0756 34.0087 11.0756H2.74657Z" fill="#093F68"/>
<path d="M27.9328 0.267015L1.51562 9.80859L6.63867 23.9756L33.0559 14.434L27.9328 0.267015Z" fill="#70CC40"/>
<path d="M6.65604 24.2317C6.60329 24.2317 6.55182 24.2154 6.50865 24.1851C6.46548 24.1548 6.43269 24.112 6.41475 24.0624L1.28097 9.89386C1.2553 9.83141 1.2553 9.76135 1.28097 9.6989C1.29531 9.66809 1.31562 9.64042 1.34074 9.61753C1.36586 9.59462 1.39528 9.57694 1.42729 9.5655L27.8483 0.0197738C27.8796 0.00672017 27.9132 0 27.9471 0C27.981 0 28.0146 0.00672017 28.0459 0.0197738C28.1067 0.048653 28.1537 0.100244 28.1768 0.163434L33.3106 14.3319C33.3337 14.3959 33.3305 14.4664 33.3016 14.528C33.2727 14.5896 33.2206 14.6372 33.1566 14.6603L6.74075 24.2035C6.71438 24.2177 6.68571 24.2273 6.65604 24.2317ZM1.86109 9.96056L6.81006 23.6468L32.7356 14.2781L27.7815 0.591851L1.86109 9.96056Z" fill="#093F68"/>
<path d="M31.5871 4.75743L4.05859 10.3398L7.05589 25.1028L34.5844 19.5204L31.5871 4.75743Z" fill="#70CC40"/>
<path d="M7.05326 25.359C6.99321 25.3603 6.93463 25.3404 6.88773 25.3029C6.84083 25.2654 6.80857 25.2126 6.79657 25.1538L3.79844 10.3901C3.78451 10.3238 3.79743 10.2546 3.83438 10.1977C3.85309 10.1694 3.87726 10.1451 3.90546 10.1261C3.93366 10.1072 3.96533 10.094 3.99866 10.0874L31.5311 4.50519C31.5642 4.49845 31.5982 4.49827 31.6313 4.50468C31.6644 4.51109 31.6959 4.52395 31.7241 4.54253C31.7522 4.56111 31.7764 4.58505 31.7952 4.61298C31.8141 4.6409 31.8273 4.67227 31.834 4.70529L34.8321 19.469C34.8453 19.5357 34.8315 19.6049 34.7936 19.6614C34.7564 19.718 34.6983 19.7577 34.6319 19.7717L7.1046 25.3539L7.05326 25.359ZM4.35803 10.5364L7.25348 24.7972L34.2777 19.3176L31.3822 5.05418L4.35803 10.5364Z" fill="#093F68"/>
<path d="M18.281 11.0664C18.3298 11.3229 18.3811 11.559 18.4273 11.8078C18.4273 11.854 18.453 11.8668 18.5018 11.8694C18.8778 11.8627 19.2495 11.9509 19.5824 12.1259C19.9311 12.3129 20.1988 12.6215 20.3345 12.993C20.373 13.093 20.4038 13.1982 20.4372 13.306L19.2949 13.5317C19.26 13.3612 19.1698 13.207 19.0382 13.093C18.9214 13.0173 18.8006 12.948 18.6763 12.8853L18.6609 12.9058L18.9433 14.3295H19.0716C19.3931 14.329 19.7136 14.3661 20.0265 14.4399C20.2608 14.4909 20.4769 14.6044 20.6518 14.7684C20.8268 14.9324 20.9539 15.1406 21.0199 15.3711C21.1716 15.795 21.1532 16.2611 20.9685 16.6717C20.8156 17.0069 20.5616 17.2859 20.2421 17.4696C20.0445 17.585 19.834 17.6774 19.6209 17.7825L19.7287 18.3367L18.6763 18.5444L18.5634 17.9749C18.3401 17.9595 18.127 17.9544 17.9191 17.9262C17.512 17.8818 17.132 17.701 16.841 17.4131C16.5972 17.1586 16.4354 16.8369 16.3764 16.4896L17.5032 16.2664C17.5483 16.4606 17.6563 16.6345 17.8104 16.7611C17.9645 16.8878 18.1561 16.96 18.3555 16.9667C18.2562 16.4537 18.1561 15.9406 18.0551 15.4275C17.8292 15.4096 17.6034 15.3942 17.3775 15.3685C17.1033 15.3491 16.8384 15.2608 16.6074 15.112C16.3728 14.96 16.1929 14.7371 16.094 14.4758C15.9614 14.1618 15.9187 13.8172 15.9708 13.4804C16.0126 13.2421 16.1059 13.0159 16.2442 12.8174C16.3826 12.6189 16.5626 12.4529 16.7717 12.3311C16.9469 12.2349 17.1278 12.1492 17.3133 12.0746L17.38 12.0464L17.2286 11.2768L18.281 11.0664ZM19.413 16.7769C19.5821 16.7206 19.7317 16.6174 19.8442 16.4793C19.9361 16.3586 19.9805 16.2084 19.9692 16.0572C19.9578 15.906 19.8915 15.7641 19.7826 15.6584C19.5941 15.5393 19.3767 15.4737 19.1538 15.4686L19.413 16.7769ZM17.57 13.0212C17.4428 13.1076 17.3219 13.2027 17.2081 13.306C17.1509 13.3668 17.1077 13.4394 17.0816 13.5186C17.0555 13.5978 17.047 13.6818 17.0568 13.7647C17.0666 13.8476 17.0944 13.9273 17.1382 13.9983C17.1821 14.0692 17.241 14.1298 17.3107 14.1756C17.4715 14.2511 17.6465 14.2913 17.8241 14.2936L17.57 13.0212Z" fill="#093F68"/>
<path d="M6.927 19.2435C9.25762 19.2435 11.147 17.3553 11.147 15.0261C11.147 12.6968 9.25762 10.8086 6.927 10.8086C4.59638 10.8086 2.70703 12.6968 2.70703 15.0261C2.70703 17.3553 4.59638 19.2435 6.927 19.2435Z" fill="#FFBC0E"/>
<path d="M6.93101 19.5C6.04499 19.5005 5.17873 19.2384 4.44179 18.7468C3.70485 18.2552 3.13033 17.5563 2.79092 16.7383C2.4515 15.9204 2.36243 15.0202 2.53498 14.1517C2.70752 13.2831 3.13392 12.4853 3.76025 11.8589C4.38657 11.2326 5.18469 10.806 6.05365 10.6331C6.9226 10.4601 7.82335 10.5486 8.64197 10.8874C9.46059 11.2261 10.1603 11.7999 10.6526 12.5361C11.1449 13.2723 11.4077 14.1379 11.4077 15.0234C11.407 16.21 10.9352 17.3479 10.0959 18.1872C9.25657 19.0265 8.11832 19.4986 6.93101 19.5ZM6.93101 11.0625C6.14642 11.062 5.37931 11.2941 4.72674 11.7294C4.07416 12.1647 3.56546 12.7837 3.26497 13.5081C2.96449 14.2324 2.88573 15.0295 3.03868 15.7986C3.19162 16.5677 3.56938 17.2742 4.12417 17.8286C4.67896 18.3831 5.38584 18.7606 6.15538 18.9135C6.92492 19.0663 7.72253 18.9876 8.4473 18.6873C9.17206 18.387 9.79142 17.8786 10.227 17.2264C10.6626 16.5742 10.8948 15.8076 10.8943 15.0234C10.8929 13.9734 10.4749 12.9667 9.73197 12.2241C8.98901 11.4816 7.98172 11.0639 6.93101 11.0625Z" fill="#093F68"/>
<path d="M14.4948 6.59729C14.2202 5.57115 13.4142 4.53217 12.2257 3.80104C11.0372 3.06992 9.73325 2.83903 8.70649 3.04426L8.00573 2.61328L7.09962 4.09093C6.25255 5.46853 7.17663 7.57213 9.15313 8.79068C11.1296 10.0092 13.4373 9.88096 14.2869 8.50336L15.193 7.02827L14.4948 6.59729Z" fill="#FFBC0E"/>
<path d="M11.9286 9.88605C10.901 9.86516 9.89881 9.56351 9.03059 9.01382C6.92574 7.73114 5.95032 5.4531 6.87953 3.95749L7.78564 2.4824C7.80326 2.45351 7.82642 2.42839 7.85379 2.40848C7.88117 2.38858 7.91221 2.37428 7.94513 2.36641C7.97806 2.35854 8.01221 2.35726 8.04564 2.36264C8.07906 2.36801 8.11108 2.37995 8.13987 2.39775L8.75593 2.77742C9.88279 2.57476 11.1893 2.86721 12.3496 3.58551C13.5098 4.30381 14.3749 5.34022 14.706 6.43563L15.322 6.81274C15.379 6.84951 15.4202 6.90624 15.4375 6.97179C15.453 7.03748 15.4419 7.1066 15.4067 7.16419L14.4981 8.63928C14.0437 9.38067 13.2146 9.82191 12.1571 9.88092L11.9286 9.88605ZM8.0911 2.95956L7.32104 4.21659C6.55097 5.47105 7.43911 7.4233 9.30011 8.56488C10.1472 9.10803 11.1381 9.38421 12.1442 9.35758C13.0272 9.30884 13.7126 8.95482 14.0771 8.36222L14.8472 7.10519L14.3569 6.82044C14.3014 6.78617 14.261 6.73205 14.2439 6.66908C13.9744 5.67628 13.1684 4.68605 12.0878 4.02419C11.0071 3.36232 9.75958 3.08783 8.7508 3.29819C8.68637 3.31148 8.61929 3.29954 8.56341 3.26484L8.0911 2.95956Z" fill="#093F68"/>
<path d="M15.1975 7.03238C16.0439 5.65475 15.1199 3.54997 13.1338 2.33121C11.1477 1.11246 8.85151 1.24124 8.00514 2.61887C7.15877 3.99649 8.08273 6.10128 10.0688 7.32004C12.055 8.53879 14.3511 8.41 15.1975 7.03238Z" fill="#FFBC0E"/>
<path d="M12.8297 8.40219C11.8039 8.38271 10.8032 8.08187 9.93684 7.53254C7.83199 6.24985 6.85657 3.97437 7.78578 2.47877C8.71499 0.983159 11.1664 0.816411 13.2687 2.10679C15.3709 3.39717 16.3489 5.66495 15.4197 7.16056C14.914 7.98147 13.9463 8.40219 12.8297 8.40219ZM10.3629 1.73225C9.42859 1.73225 8.63286 2.07087 8.22472 2.73787C7.45465 3.99233 8.3428 5.94457 10.2038 7.08616C12.0648 8.22775 14.2107 8.13796 14.9808 6.8835C15.7508 5.62647 14.8627 3.67679 13.0017 2.52238C12.2092 2.028 11.297 1.75842 10.3629 1.74251V1.73225Z" fill="#093F68"/>
<path d="M29.3426 9.54371C29.6173 8.51757 30.4233 7.49142 31.6117 6.74747C32.8002 6.00351 34.1016 5.77519 35.1335 5.97786L35.8343 5.54688L36.743 7.02196C37.5875 8.39956 36.6634 10.5057 34.6766 11.7243C32.6898 12.9428 30.395 12.8146 29.5428 11.437L28.6367 9.96187L29.3426 9.54371Z" fill="#FFBC0E"/>
<path d="M31.9149 12.8301H31.6711C30.6161 12.7686 29.7844 12.3171 29.3301 11.5885L28.424 10.1134C28.3888 10.0555 28.378 9.98608 28.3939 9.92024C28.4097 9.8544 28.451 9.7975 28.5087 9.76196L29.1247 9.38228C29.4533 8.28687 30.3055 7.2556 31.4786 6.53473C32.6516 5.81386 33.9582 5.52141 35.0722 5.72407L35.6883 5.34696C35.7171 5.32916 35.7491 5.31723 35.7825 5.31186C35.8159 5.30648 35.8501 5.30776 35.883 5.31563C35.9159 5.3235 35.947 5.3378 35.9743 5.3577C36.0017 5.37761 36.0249 5.40273 36.0425 5.43162L36.9486 6.90671C37.4029 7.6481 37.4184 8.58702 36.9948 9.55416C36.5221 10.5586 35.7572 11.3972 34.8001 11.9605C33.9355 12.5074 32.9379 12.8081 31.9149 12.8301ZM28.9861 10.0595L29.7562 11.3166C30.1207 11.9092 30.806 12.2632 31.6891 12.3119C32.6925 12.3184 33.6777 12.0438 34.5329 11.5192C35.3881 10.9946 36.0792 10.2409 36.5276 9.3438C36.8819 8.53571 36.8767 7.76354 36.5122 7.17094L35.7422 5.91391L35.2596 6.20893C35.2037 6.24363 35.1366 6.25557 35.0722 6.24228C34.066 6.03192 32.8185 6.30385 31.7353 6.96571C30.652 7.62757 29.8486 8.62037 29.5791 9.6106C29.5714 9.64213 29.5574 9.67178 29.538 9.69779C29.5186 9.72379 29.4942 9.74562 29.4661 9.76196L28.9861 10.0595Z" fill="#093F68"/>
<path d="M33.7744 10.2625C35.7606 9.04378 36.6845 6.939 35.8381 5.56137C34.9918 4.18375 32.6956 4.05496 30.7095 5.27371C28.7234 6.49247 27.7994 8.59725 28.6458 9.97488C29.4921 11.3525 31.7883 11.4813 33.7744 10.2625Z" fill="#FFBC0E"/>
<path d="M31.0089 11.3596C30.9267 11.3596 30.8446 11.3596 30.765 11.3596C29.71 11.3006 28.8784 10.8619 28.424 10.1205C27.9697 9.3791 27.9517 8.44017 28.3778 7.47303C28.8678 6.47988 29.6289 5.64551 30.5732 5.06629C31.5175 4.48706 32.6065 4.18661 33.7144 4.19962C34.7694 4.25863 35.601 4.69731 36.0554 5.4387C36.9743 6.9343 36.0092 9.20209 33.9069 10.4925C33.0383 11.0407 32.036 11.3406 31.0089 11.3596ZM33.468 4.68961C32.5355 4.71199 31.6268 4.98781 30.8395 5.48744C29.9723 5.99659 29.2783 6.75453 28.8476 7.66287C28.4908 8.47352 28.4959 9.2457 28.8476 9.8383C29.2121 10.4309 29.8974 10.7824 30.7804 10.8337C31.7866 10.8606 32.7776 10.5844 33.6245 10.041C35.4881 8.89681 36.3762 6.94713 35.6036 5.67984C35.2391 5.08724 34.5538 4.73322 33.6707 4.68191L33.468 4.68961Z" fill="#093F68"/>
<path d="M37.6612 17.8405V35.7006C37.6612 36.2449 37.4448 36.7669 37.0597 37.1517C36.6746 37.5366 36.1523 37.7528 35.6077 37.7528H3.88349C3.40685 37.7528 2.93487 37.659 2.49451 37.4767C2.05415 37.2944 1.65403 37.0272 1.31699 36.6904C0.97995 36.3536 0.712596 35.9537 0.530193 35.5136C0.347789 35.0735 0.253906 34.6018 0.253906 34.1254V13.3203C0.253906 13.981 0.516503 14.6145 0.983928 15.0817C1.45135 15.5488 2.08532 15.8113 2.74636 15.8113H35.6179C36.1568 15.8139 36.673 16.0282 37.0553 16.4078C37.4375 16.7874 37.6551 17.302 37.6612 17.8405Z" fill="#68E1FD"/>
<path d="M35.6207 38.0003H3.88627C2.85578 37.9996 1.86768 37.5902 1.13901 36.862C0.410344 36.1337 0.00067997 35.1462 0 34.1163V13.3112C0 13.2432 0.0270437 13.1779 0.0751823 13.1298C0.123321 13.0817 0.188611 13.0547 0.256689 13.0547C0.324767 13.0547 0.390057 13.0817 0.438196 13.1298C0.486334 13.1779 0.513378 13.2432 0.513378 13.3112C0.514057 13.9036 0.749828 14.4716 1.16897 14.8905C1.58811 15.3093 2.15639 15.545 2.74914 15.5457H35.6207C36.2312 15.5456 36.8169 15.7871 37.2498 16.2174C37.6826 16.6476 37.9275 17.2315 37.9309 17.8417V35.7017C37.9282 36.3123 37.6836 36.8969 37.2507 37.3277C36.8177 37.7585 36.2317 38.0003 35.6207 38.0003ZM0.513378 14.8992V34.1086C0.514736 35.0022 0.870528 35.8588 1.50277 36.4907C2.13502 37.1226 2.99214 37.4782 3.88627 37.4795H35.6207C36.0973 37.4795 36.5543 37.2903 36.8913 36.9536C37.2282 36.6168 37.4176 36.16 37.4176 35.6838V17.8417C37.4142 17.3676 37.2234 16.9142 36.8868 16.5801C36.5502 16.2461 36.0951 16.0587 35.6207 16.0587H2.74914C2.31087 16.0581 1.87913 15.9525 1.49012 15.7508C1.1011 15.549 0.766164 15.257 0.513378 14.8992Z" fill="#093F68"/>
<path d="M31.5002 24.2695H39.2394V31.0472H31.5002C30.9086 31.0472 30.3412 30.8124 29.9229 30.3943C29.5046 29.9762 29.2696 29.4092 29.2696 28.8179V26.5091C29.2682 26.2155 29.3249 25.9245 29.4364 25.6528C29.5479 25.3812 29.712 25.1342 29.9193 24.9261C30.1265 24.718 30.3729 24.5529 30.6442 24.4402C30.9155 24.3275 31.2064 24.2695 31.5002 24.2695Z" fill="#F56132"/>
<path d="M39.2369 31.3039H31.4977C30.838 31.3033 30.2055 31.0412 29.7387 30.5753C29.272 30.1093 29.0092 29.4774 29.0078 28.8181V26.5093C29.0092 25.85 29.272 25.2181 29.7387 24.7521C30.2055 24.2862 30.838 24.0241 31.4977 24.0234H39.2369C39.3049 24.0234 39.3702 24.0505 39.4184 24.0986C39.4665 24.1467 39.4936 24.2119 39.4936 24.28V31.0577C39.4909 31.1239 39.4627 31.1866 39.4148 31.2325C39.367 31.2784 39.3032 31.304 39.2369 31.3039ZM31.4977 24.5263C30.9741 24.5269 30.4722 24.7349 30.1017 25.1047C29.7313 25.4744 29.5225 25.9758 29.5212 26.499V28.8078C29.5225 29.3311 29.7313 29.8325 30.1017 30.2022C30.4722 30.572 30.9741 30.7799 31.4977 30.7806H38.9802V24.5263H31.4977Z" fill="#093F68"/>
<path d="M32.6948 29.2159C33.5553 29.2159 34.2529 28.5187 34.2529 27.6587C34.2529 26.7987 33.5553 26.1016 32.6948 26.1016C31.8343 26.1016 31.1367 26.7987 31.1367 27.6587C31.1367 28.5187 31.8343 29.2159 32.6948 29.2159Z" fill="#FFBC0E"/>
<path d="M32.6937 29.4673C32.3348 29.4673 31.9839 29.3609 31.6855 29.1616C31.387 28.9623 31.1544 28.679 31.0171 28.3476C30.8797 28.0162 30.8438 27.6515 30.9138 27.2997C30.9838 26.9479 31.1566 26.6247 31.4104 26.3711C31.6642 26.1174 31.9876 25.9447 32.3397 25.8747C32.6917 25.8047 33.0566 25.8406 33.3882 25.9779C33.7198 26.1152 34.0032 26.3476 34.2026 26.6459C34.4021 26.9442 34.5085 27.2948 34.5085 27.6536C34.5078 28.1344 34.3164 28.5953 33.9762 28.9353C33.636 29.2753 33.1748 29.4666 32.6937 29.4673ZM32.6937 26.3529C32.4363 26.3529 32.1847 26.4292 31.9707 26.5721C31.7567 26.715 31.5899 26.9182 31.4914 27.1558C31.3929 27.3935 31.3671 27.655 31.4173 27.9073C31.4675 28.1596 31.5915 28.3914 31.7735 28.5732C31.9555 28.7551 32.1874 28.879 32.4398 28.9292C32.6923 28.9794 32.9539 28.9536 33.1917 28.8552C33.4295 28.7567 33.6328 28.59 33.7758 28.3762C33.9188 28.1623 33.9951 27.9108 33.9951 27.6536C33.9951 27.3086 33.858 26.9778 33.6139 26.7339C33.3699 26.4899 33.0389 26.3529 32.6937 26.3529Z" fill="#093F68"/>
<path d="M5.71372 37.9976C5.64564 37.9976 5.58035 37.9706 5.53221 37.9225C5.48407 37.8744 5.45703 37.8091 5.45703 37.7411V15.7995C5.45703 15.7315 5.48407 15.6662 5.53221 15.6181C5.58035 15.57 5.64564 15.543 5.71372 15.543C5.7818 15.543 5.84709 15.57 5.89523 15.6181C5.94337 15.6662 5.97041 15.7315 5.97041 15.7995V37.7411C5.97041 37.8091 5.94337 37.8744 5.89523 37.9225C5.84709 37.9706 5.7818 37.9976 5.71372 37.9976Z" fill="#093F68"/>
</svg>

<svg width="40" height="38" fill="none" xmlns="http://www.w3.org/2000/svg"><path d="M2.752 10.824h31.262a1.613 1.613 0 0 1 1.612 1.611v3.369H2.752a2.492 2.492 0 0 1-2.49-2.489 2.488 2.488 0 0 1 2.49-2.488v-.003Z" fill="#093F68"/><path d="M35.618 16.052H2.747A2.747 2.747 0 0 1 0 13.307a2.744 2.744 0 0 1 2.747-2.745h31.262a1.87 1.87 0 0 1 1.866 1.866v3.368a.257.257 0 0 1-.257.256ZM2.747 11.076a2.234 2.234 0 0 0-2.234 2.231 2.231 2.231 0 0 0 2.234 2.232H35.36v-3.111a1.352 1.352 0 0 0-1.352-1.352H2.747Z" fill="#093F68"/><path d="M27.933.267 1.516 9.809l5.123 14.167 26.417-9.542L27.933.267Z" fill="#70CC40"/><path d="M6.656 24.232a.257.257 0 0 1-.241-.17L1.28 9.894a.256.256 0 0 1 0-.195.257.257 0 0 1 .146-.133L27.848.02a.257.257 0 0 1 .198 0c.06.029.108.08.13.143l5.135 14.169a.257.257 0 0 1-.154.328L6.74 24.203a.259.259 0 0 1-.085.029ZM1.861 9.96l4.95 13.686 25.925-9.369L27.782.592 1.861 9.96Z" fill="#093F68"/><path d="M31.587 4.757 4.06 10.34l2.997 14.763 27.528-5.583-2.997-14.763Z" fill="#70CC40"/><path d="M7.053 25.359a.256.256 0 0 1-.256-.205L3.798 10.39a.257.257 0 0 1 .107-.264.257.257 0 0 1 .094-.039L31.53 4.505a.257.257 0 0 1 .303.2l2.998 14.764a.256.256 0 0 1-.038.192.257.257 0 0 1-.162.11L7.105 25.355l-.052.005ZM4.358 10.536l2.895 14.261 27.025-5.48-2.896-14.263-27.024 5.482Z" fill="#093F68"/><path d="M18.281 11.066c.049.257.1.493.146.742 0 .046.026.059.075.061.376-.006.748.082 1.08.257.35.187.617.495.752.867.039.1.07.205.103.313l-1.142.226a.79.79 0 0 0-.257-.439 3.87 3.87 0 0 0-.362-.208l-.015.02.282 1.425h.129c.321-.001.642.036.954.11a1.327 1.327 0 0 1 .994.931 1.74 1.74 0 0 1-.778 2.099c-.198.115-.408.207-.621.313l.108.554-1.053.207-.113-.57c-.223-.015-.436-.02-.644-.048a1.812 1.812 0 0 1-1.078-.513 1.761 1.761 0 0 1-.465-.923l1.127-.224a.905.905 0 0 0 .852.7l-.3-1.539c-.226-.017-.452-.033-.677-.059a1.635 1.635 0 0 1-.77-.256 1.311 1.311 0 0 1-.514-.636 1.837 1.837 0 0 1-.123-.996 1.662 1.662 0 0 1 .8-1.149c.176-.096.357-.182.542-.256l.067-.029-.151-.77 1.052-.21Zm1.132 5.71a.939.939 0 0 0 .431-.297.62.62 0 0 0-.061-.82 1.23 1.23 0 0 0-.63-.19l.26 1.308Zm-1.843-3.755a3.282 3.282 0 0 0-.362.285.571.571 0 0 0 .103.87c.16.075.335.115.513.118l-.254-1.273Z" fill="#093F68"/><path d="M6.927 19.244a4.219 4.219 0 1 0 0-8.435 4.219 4.219 0 1 0 0 8.435Z" fill="#FFBC0E"/><path d="M6.931 19.5a4.481 4.481 0 0 1-4.14-2.762 4.474 4.474 0 0 1 3.263-6.105 4.48 4.48 0 0 1 5.354 4.39A4.478 4.478 0 0 1 6.93 19.5Zm0-8.438a3.968 3.968 0 0 0-3.666 2.446 3.961 3.961 0 0 0 2.89 5.405 3.969 3.969 0 0 0 4.072-1.687 3.962 3.962 0 0 0-3.296-6.163Z" fill="#093F68"/><path d="M14.495 6.597c-.275-1.026-1.08-2.065-2.27-2.796-1.188-.731-2.492-.962-3.519-.757l-.7-.43L7.1 4.09c-.847 1.378.077 3.481 2.053 4.7 1.977 1.218 4.284 1.09 5.134-.288l.906-1.475-.698-.43Z" fill="#FFBC0E"/><path d="M11.929 9.886a5.632 5.632 0 0 1-2.898-.872C6.926 7.73 5.95 5.454 6.88 3.957l.906-1.475a.257.257 0 0 1 .354-.084l.616.38c1.127-.203 2.433.09 3.594.808 1.16.718 2.025 1.754 2.356 2.85l.616.377a.272.272 0 0 1 .116.159.256.256 0 0 1-.031.192l-.909 1.475c-.454.742-1.283 1.183-2.34 1.242l-.23.005ZM8.09 2.96l-.77 1.257c-.77 1.254.118 3.206 1.98 4.348.846.543 1.837.82 2.843.793.883-.05 1.569-.403 1.933-.996l.77-1.257-.49-.285a.257.257 0 0 1-.113-.15c-.27-.994-1.076-1.984-2.156-2.646-1.08-.662-2.328-.936-3.337-.726a.257.257 0 0 1-.188-.033l-.472-.305Z" fill="#093F68"/><path d="M15.197 7.032c.847-1.377-.077-3.482-2.063-4.7-1.986-1.22-4.282-1.09-5.129.287C7.16 3.996 8.083 6.1 10.07 7.32c1.986 1.219 4.282 1.09 5.128-.288Z" fill="#FFBC0E"/><path d="M12.83 8.402a5.6 5.6 0 0 1-2.893-.87C7.832 6.25 6.857 3.975 7.786 2.48c.929-1.496 3.38-1.663 5.483-.372 2.102 1.29 3.08 3.558 2.15 5.054-.505.82-1.473 1.241-2.59 1.241Zm-2.467-6.67c-.934 0-1.73.339-2.138 1.006-.77 1.254.118 3.207 1.979 4.348 1.86 1.142 4.007 1.052 4.777-.203.77-1.257-.118-3.206-1.98-4.36a5.151 5.151 0 0 0-2.638-.78v-.01Z" fill="#093F68"/><path d="M29.343 9.544c.274-1.026 1.08-2.053 2.269-2.797 1.188-.743 2.49-.972 3.521-.77l.701-.43.909 1.475c.844 1.378-.08 3.484-2.066 4.702-1.987 1.219-4.282 1.09-5.134-.287l-.906-1.475.706-.418Z" fill="#FFBC0E"/><path d="M31.915 12.83h-.244c-1.055-.061-1.887-.513-2.34-1.242l-.907-1.475a.256.256 0 0 1 .085-.351l.616-.38c.328-1.095 1.18-2.126 2.354-2.847 1.173-.721 2.48-1.014 3.593-.81l.616-.378a.257.257 0 0 1 .354.085l.907 1.475c.454.741.47 1.68.046 2.647A5.52 5.52 0 0 1 34.8 11.96a5.623 5.623 0 0 1-2.885.87Zm-2.929-2.77.77 1.257c.365.592 1.05.946 1.933.995a5.372 5.372 0 0 0 4.839-2.968c.354-.808.349-1.58-.016-2.173l-.77-1.257-.482.295a.257.257 0 0 1-.188.033c-1.006-.21-2.254.062-3.337.724-1.083.662-1.886 1.654-2.156 2.645a.242.242 0 0 1-.113.151l-.48.297Z" fill="#093F68"/><path d="M33.774 10.262c1.987-1.218 2.91-3.323 2.064-4.7-.846-1.378-3.142-1.507-5.129-.288-1.986 1.218-2.91 3.323-2.063 4.7.846 1.378 3.142 1.507 5.128.288Z" fill="#FFBC0E"/><path d="M31.009 11.36h-.244c-1.055-.06-1.887-.498-2.341-1.24-.454-.74-.472-1.68-.046-2.647A5.87 5.87 0 0 1 33.714 4.2c1.055.059 1.887.497 2.341 1.239.92 1.495-.046 3.763-2.148 5.053a5.625 5.625 0 0 1-2.898.868Zm2.459-6.67a5.136 5.136 0 0 0-2.629.797 5.014 5.014 0 0 0-1.991 2.176c-.357.81-.352 1.583 0 2.175.364.593 1.05.944 1.932.996a5.018 5.018 0 0 0 2.844-.793c1.864-1.144 2.752-3.094 1.98-4.361-.365-.593-1.05-.947-1.933-.998l-.203.008Z" fill="#093F68"/><path d="M37.661 17.84V35.7a2.051 2.051 0 0 1-2.053 2.053H3.883a3.631 3.631 0 0 1-3.63-3.628V13.32a2.49 2.49 0 0 0 2.493 2.491h32.872a2.054 2.054 0 0 1 2.043 2.03Z" fill="#68E1FD"/><path d="M35.62 38H3.887A3.89 3.89 0 0 1 0 34.116V13.311a.257.257 0 0 1 .513 0 2.236 2.236 0 0 0 2.236 2.235h32.872a2.31 2.31 0 0 1 2.31 2.296v17.86A2.308 2.308 0 0 1 35.62 38ZM.514 14.9v19.209a3.375 3.375 0 0 0 3.373 3.37h31.735a1.798 1.798 0 0 0 1.797-1.795V17.842a1.796 1.796 0 0 0-1.797-1.783H2.749a2.743 2.743 0 0 1-2.236-1.16Z" fill="#093F68"/><path d="M31.5 24.27h7.74v6.777H31.5a2.231 2.231 0 0 1-2.23-2.23V26.51a2.227 2.227 0 0 1 2.23-2.24Z" fill="#F56132"/><path d="M39.237 31.304h-7.74a2.493 2.493 0 0 1-2.49-2.486V26.51a2.49 2.49 0 0 1 2.49-2.486h7.74a.257.257 0 0 1 .257.257v6.778a.257.257 0 0 1-.257.246Zm-7.74-6.778a1.98 1.98 0 0 0-1.976 1.973v2.309a1.977 1.977 0 0 0 1.977 1.973h7.482v-6.255h-7.482Z" fill="#093F68"/><path d="M32.695 29.216a1.558 1.558 0 1 0 0-3.115 1.558 1.558 0 0 0 0 3.115Z" fill="#FFBC0E"/><path d="M32.694 29.467a1.815 1.815 0 0 1-1.284-3.096 1.815 1.815 0 0 1 2.566 2.564c-.34.34-.801.532-1.282.532Zm0-3.114a1.302 1.302 0 0 0-.92 2.22 1.302 1.302 0 1 0 .92-2.22ZM5.714 37.998a.257.257 0 0 1-.257-.257V15.8a.257.257 0 0 1 .513 0V37.74a.257.257 0 0 1-.256.257Z" fill="#093F68"/></svg>
